.github/Chladni.svg

<?xml version="1.0" encoding="UTF-8" standalone="no"?>
<!-- Created with Inkscape (http://www.inkscape.org/) -->

<svg
   xmlns:svg="http://www.w3.org/2000/svg"
   xmlns="http://www.w3.org/2000/svg"
   xmlns:xlink="http://www.w3.org/1999/xlink"
   version="1.1"
   width="550"
   height="300"
   id="svg6476">
  <defs
     id="defs6478" />
  <rect
     width="550"
     height="300"
     style="fill:#ffffff;stroke:none" />
  <g
     id="g6584">
    <path
       d="m 49.418856,13.62634 c -17.57016,0 -30.25007,8.86876 -30.25007,21.11463 0,5.33508 3.703145,13.95293 3.703145,23.15113 0,9.1982 -11.921931,18.98034 -11.921931,41.26556 0,12.94725 13.349976,24.99591 39.684146,24.95661 26.334165,-0.0393 38.034785,-12.15903 38.034785,-24.95661 0,-20.87262 -12.17714,-32.97175 -12.17714,-41.49475 0,-8.523 4.73957,-18.3682 4.73957,-23.44275 0,-12.24587 -14.24234,-20.59382 -31.812505,-20.59382 z"
       id="path5624"
       style="fill:#fffeea;stroke:#000000;stroke-width:2;" />
    <use
       transform="translate(90,0)"
       xlink:href="#path5624" />
    <use
       transform="translate(180,0)"
       xlink:href="#path5624" />
    <use
       transform="translate(270,0)"
       xlink:href="#path5624" />
    <use
       transform="translate(360,0)"
       xlink:href="#path5624" />
    <use
       transform="translate(450,0)"
       xlink:href="#path5624" />
  </g>
  <use
     transform="translate(0,140.367)"
     xlink:href="#g6584" />
  <path
     d="m 519.8866,262.27522 c -0.27606,-17.94383 -22.08472,-70.39504 -3.03665,-104.35029 m 20.1523,67.91051 c -15.25648,3.17702 -18.23435,21.76084 -6.0733,30.64254 m -41.20034,8.00571 c 0,-49.16995 19.60018,-49.11682 19.60018,0 l 0,0.27606 m -29.53831,-2.48453 c 0.27606,-17.94383 22.08472,-70.39504 3.03665,-104.35029 m -20.1523,67.91051 c 15.25648,3.17702 18.23435,21.76084 6.0733,30.64254 m 4.14088,-61.00903 c 20.40512,8.61452 37.8304,6.79958 53.8315,0 m -155.14514,49.96667 c 21.90068,15.4593 54.75169,16.01142 76.19227,0 m -72.05139,-29.26225 c 23.10742,9.7064 45.44716,9.43289 67.08233,0 m -61.56115,-27.32983 c 20.98048,6.99349 39.75249,6.99349 56.31603,0 m -46.10185,-30.36649 c 12.31118,3.83487 24.31223,4.25826 35.88767,0 m -17.94383,-3.86483 0,110.42359 M 281.85621,245.43562 c 21.90068,15.4593 54.75169,16.01142 76.19227,0 m -72.05139,-29.26225 c 23.10742,9.7064 45.44716,9.43289 67.08233,0 m -61.56115,-27.32983 c 20.98048,6.99349 39.75249,6.99349 56.31603,0 m -46.10185,-30.36649 c 12.31118,3.83487 24.31223,4.25826 35.88767,0 m -68.69763,80.88528 c -12.6179,-5.83052 -26.5597,5.57533 -18.77201,22.91289 m -36.20478,1.10424 c 4.69402,-25.31861 25.27961,-24.78608 31.19466,0.55212 m -54.10755,-24.56925 c 12.6179,-5.83052 26.5597,5.57533 18.77201,22.91289 m -11.87054,-49.13849 c 14.61448,22.13103 48.60292,21.66835 63.76962,0 m -60.18085,-23.74108 c 17.9718,15.68306 38.70895,15.94486 56.31603,0 m -47.48215,-30.36648 c 13.13172,5.11484 25.97583,5.91538 38.3722,0 m -70.72333,73.43168 c -32.01254,4.58308 -30.251,-45.79143 -25.39743,-75.91621 m -51.57079,75.91621 c 32.01254,4.58308 30.251,-45.79143 25.39743,-75.91621 m -17.11566,23.46501 c 24.33058,8.19465 44.31039,7.2527 61.28509,0 m -67.63445,68.46262 c 25.23996,-9.38995 49.93775,-11.18945 73.70775,0 m -59.62874,12.1466 c 19.04807,-8.00571 16.01354,-3.60252 24.01713,-3.58877 8.0036,0.0138 5.52118,-3.58876 23.46501,3.58877 m -149.071838,-8.55783 69.56686,0 M 31.746781,158.47705 c 10.403418,4.05376 21.820768,5.47129 35.887666,0 m -44.997612,41.96096 53.55544,0 m -25.949543,-45.82579 0,110.42359 M 473.3211,23.596739 c 17.37017,9.589486 35.27714,10.858492 53.96653,0 M 473.3211,57.26393 c 19.33773,7.045891 37.3421,8.758345 52.72877,0 m -64.85886,35.152509 c 27.89096,13.532891 53.47142,13.532891 76.74139,0 M 418.11681,14.18973 C 405.17662,51.533171 403.68572,89.058411 414.40352,123.6081 M 392.61887,16.665258 c -14.1462,43.08358 -10.84124,76.818569 -2.97063,104.219762 m 47.53014,-70.55257 c -4.28963,20.299977 -6.42054,40.441553 0.99021,66.59172 M 288.89421,35.47928 c 20.28161,9.39048 40.94687,8.4224 61.88822,0 m -69.80991,61.888217 c 25.48025,-15.997348 51.34406,-14.350583 77.48405,0 m -39.60846,-84.167979 0,110.408582 M 244.40763,15.67505 c -6.51487,40.05164 -3.79441,74.56208 6.18882,104.71486 M 215.371,15.675047 c 6.51487,40.051643 3.79441,74.562085 -6.18882,104.714863 m -6.68393,-58.917581 c 17.55471,-4.793338 35.58893,-5.750671 54.46164,0 m -144.07578,-1.73287 c 18.34537,5.476449 36.43469,8.264301 53.47142,0 m -25.25039,-46.787494 0,110.656135 M 19.061572,35.72683 l 61.888219,0 m -68.8197,52.976316 75.256075,0"
     style="fill:none;stroke:#000000;stroke-width:1px;" />

<g id="text" style="font-family:Waree;font-size:14px;fill:#000;stroke:none;text-anchor:middle;">
	<text x="50" y="140">60Hz</text>
	<text x="140" y="140">72Hz</text>
	<text x="230" y="140">95Hz</text>
	<text x="320" y="140">109Hz</text>
	<text x="410" y="140">128Hz</text>
	<text x="500" y="140">175Hz</text>

	<text x="50" y="280">240Hz</text>
	<text x="140" y="280">378Hz</text>
	<text x="230" y="280">338Hz</text>
	<text x="320" y="280">352Hz</text>
	<text x="410" y="280">426Hz</text>
	<text x="500" y="280">478Hz</text>
</g>
</svg>

<?xml version="1.0" encoding="utf-8"?>
<!-- Generator: Adobe Illustrator 23.0.1, SVG Export Plug-In . SVG Version: 6.00 Build 0)  -->
<svg version="1.1" id="svg6476" xmlns:svg="http://www.w3.org/2000/svg"
	 xmlns="http://www.w3.org/2000/svg" xmlns:xlink="http://www.w3.org/1999/xlink" x="0px" y="0px" viewBox="0 0 550 300"
	 style="enable-background:new 0 0 550 300;" xml:space="preserve">
<style type="text/css">
	.st0{fill:#FFFEEA;stroke:#000000;stroke-width:2;}
	.st1{fill:none;stroke:#000000;}
	.st2{font-family:'ArialMT';}
	.st3{font-size:14px;}
</style>
<g id="g6584">
	<path id="path5624" class="st0" d="M49.4,13.6c-17.6,0-30.3,8.9-30.3,21.1c0,5.3,3.7,14,3.7,23.2S11,76.9,11,99.2
		c0,12.9,13.3,25,39.7,25s38-12.2,38-25c0-20.9-12.2-33-12.2-41.5s4.7-18.4,4.7-23.4C81.2,22,67,13.6,49.4,13.6z"/>
	<g transform="translate(90,0)">
		<path class="st0" d="M139.4,13.6c-17.6,0-30.3,8.9-30.3,21.1c0,5.3,3.7,14,3.7,23.2S101,76.9,101,99.2c0,12.9,13.3,25,39.7,25
			s38-12.2,38-25c0-20.9-12.2-33-12.2-41.5s4.7-18.4,4.7-23.4C171.2,22,157,13.6,139.4,13.6z"/>
	</g>
	<g transform="translate(180,0)">
		<path class="st0" d="M229.4,13.6c-17.6,0-30.3,8.9-30.3,21.1c0,5.3,3.7,14,3.7,23.2s-11.9,19-11.9,41.3c0,12.9,13.3,25,39.7,25
			s38-12.2,38-25c0-20.9-12.2-33-12.2-41.5s4.7-18.4,4.7-23.4C261.2,22,247,13.6,229.4,13.6z"/>
	</g>
	<g transform="translate(270,0)">
		<path class="st0" d="M319.4,13.6c-17.6,0-30.3,8.9-30.3,21.1c0,5.3,3.7,14,3.7,23.2S281,76.9,281,99.2c0,12.9,13.3,25,39.7,25
			s38-12.2,38-25c0-20.9-12.2-33-12.2-41.5s4.7-18.4,4.7-23.4C351.2,22,337,13.6,319.4,13.6z"/>
	</g>
	<g transform="translate(360,0)">
		<path class="st0" d="M409.4,13.6c-17.6,0-30.3,8.9-30.3,21.1c0,5.3,3.7,14,3.7,23.2S371,76.9,371,99.2c0,12.9,13.3,25,39.7,25
			s38-12.2,38-25c0-20.9-12.2-33-12.2-41.5s4.7-18.4,4.7-23.4C441.2,22,427,13.6,409.4,13.6z"/>
	</g>
	<g transform="translate(450,0)">
		<path class="st0" d="M499.4,13.6c-17.6,0-30.3,8.9-30.3,21.1c0,5.3,3.7,14,3.7,23.2S461,76.9,461,99.2c0,12.9,13.3,25,39.7,25
			s38-12.2,38-25c0-20.9-12.2-33-12.2-41.5s4.7-18.4,4.7-23.4C531.2,22,517,13.6,499.4,13.6z"/>
	</g>
</g>
<g transform="translate(0,140.367)">
	<g>
		<path class="st0" d="M49.4,154c-17.6,0-30.3,8.9-30.3,21.1c0,5.3,3.7,14,3.7,23.2S11,217.2,11,239.5c0,12.9,13.3,25,39.7,25
			s38-12.2,38-25c0-20.9-12.2-33-12.2-41.5c0-8.5,4.7-18.4,4.7-23.4C81.2,162.3,67,154,49.4,154z"/>
		<g transform="translate(90,0)">
			<path class="st0" d="M139.4,154c-17.6,0-30.3,8.9-30.3,21.1c0,5.3,3.7,14,3.7,23.2s-11.9,19-11.9,41.3c0,12.9,13.3,25,39.7,25
				s38-12.2,38-25c0-20.9-12.2-33-12.2-41.5c0-8.5,4.7-18.4,4.7-23.4C171.2,162.3,157,154,139.4,154z"/>
		</g>
		<g transform="translate(180,0)">
			<path class="st0" d="M229.4,154c-17.6,0-30.3,8.9-30.3,21.1c0,5.3,3.7,14,3.7,23.2s-11.9,19-11.9,41.3c0,12.9,13.3,25,39.7,25
				s38-12.2,38-25c0-20.9-12.2-33-12.2-41.5c0-8.5,4.7-18.4,4.7-23.4C261.2,162.3,247,154,229.4,154z"/>
		</g>
		<g transform="translate(270,0)">
			<path class="st0" d="M319.4,154c-17.6,0-30.3,8.9-30.3,21.1c0,5.3,3.7,14,3.7,23.2s-11.9,19-11.9,41.3c0,12.9,13.3,25,39.7,25
				s38-12.2,38-25c0-20.9-12.2-33-12.2-41.5c0-8.5,4.7-18.4,4.7-23.4C351.2,162.3,337,154,319.4,154z"/>
		</g>
		<g transform="translate(360,0)">
			<path class="st0" d="M409.4,154c-17.6,0-30.3,8.9-30.3,21.1c0,5.3,3.7,14,3.7,23.2s-11.9,19-11.9,41.3c0,12.9,13.3,25,39.7,25
				s38-12.2,38-25c0-20.9-12.2-33-12.2-41.5c0-8.5,4.7-18.4,4.7-23.4C441.2,162.3,427,154,409.4,154z"/>
		</g>
		<g transform="translate(450,0)">
			<path class="st0" d="M499.4,154c-17.6,0-30.3,8.9-30.3,21.1c0,5.3,3.7,14,3.7,23.2s-11.9,19-11.9,41.3c0,12.9,13.3,25,39.7,25
				s38-12.2,38-25c0-20.9-12.2-33-12.2-41.5c0-8.5,4.7-18.4,4.7-23.4C531.2,162.3,517,154,499.4,154z"/>
		</g>
	</g>
</g>
<path class="st1" d="M519.9,262.3c-0.3-17.9-22.1-70.4-3-104.4 M537,225.8c-15.3,3.2-18.2,21.8-6.1,30.6 M489.7,264.5
	c0-49.2,19.6-49.1,19.6,0v0.3 M479.8,262.3c0.3-17.9,22.1-70.4,3-104.4 M462.7,225.8c15.3,3.2,18.2,21.8,6.1,30.6 M472.9,195.5
	c20.4,8.6,37.8,6.8,53.8,0 M371.6,245.4c21.9,15.5,54.8,16,76.2,0 M375.7,216.2c23.1,9.7,45.4,9.4,67.1,0 M381.2,188.8
	c21,7,39.8,7,56.3,0 M391.5,158.5c12.3,3.8,24.3,4.3,35.9,0 M409.4,154.6V265 M281.9,245.4c21.9,15.5,54.8,16,76.2,0 M286,216.2
	c23.1,9.7,45.4,9.4,67.1,0 M291.5,188.8c21,7,39.8,7,56.3,0 M301.7,158.5c12.3,3.8,24.3,4.3,35.9,0 M268.9,239.4
	c-12.6-5.8-26.6,5.6-18.8,22.9 M213.9,263.4c4.7-25.3,25.3-24.8,31.2,0.6 M191,239.4c12.6-5.8,26.6,5.6,18.8,22.9 M197.9,213.1
	c14.6,22.1,48.6,21.7,63.8,0 M201.5,189.4c18,15.7,38.7,15.9,56.3,0 M210.4,159c13.1,5.1,26,5.9,38.4,0 M178,232.5
	c-32,4.6-30.3-45.8-25.4-75.9 M101,232.5c32,4.6,30.3-45.8,25.4-75.9 M109.3,180c24.3,8.2,44.3,7.3,61.3,0 M103,248.5
	c25.2-9.4,49.9-11.2,73.7,0 M117,260.6c19-8,16-3.6,24-3.6c8,0,5.5-3.6,23.5,3.6 M15.5,252.1H85 M31.7,158.5
	c10.4,4.1,21.8,5.5,35.9,0 M22.6,200.4h53.6 M50.2,154.6V265 M473.3,23.6c17.4,9.6,35.3,10.9,54,0 M473.3,57.3
	c19.3,7,37.3,8.8,52.7,0 M461.2,92.4c27.9,13.5,53.5,13.5,76.7,0 M418.1,14.2c-12.9,37.3-14.4,74.9-3.7,109.4 M392.6,16.7
	c-14.1,43.1-10.8,76.8-3,104.2 M437.2,50.3c-4.3,20.3-6.4,40.4,1,66.6 M288.9,35.5c20.3,9.4,40.9,8.4,61.9,0 M281,97.4
	c25.5-16,51.3-14.4,77.5,0 M318.8,13.2v110.4 M244.4,15.7c-6.5,40.1-3.8,74.6,6.2,104.7 M215.4,15.7c6.5,40.1,3.8,74.6-6.2,104.7
	 M202.5,61.5c17.6-4.8,35.6-5.8,54.5,0 M112.9,59.7c18.3,5.5,36.4,8.3,53.5,0 M141.1,13v110.7 M19.1,35.7h61.9 M12.1,88.7h75.3"/>
<g id="text">
	<text transform="matrix(1 0 0 1 33.6587 140)" class="st2 st3">60Hz</text>
	<text transform="matrix(1 0 0 1 123.6587 140)" class="st2 st3">72Hz</text>
	<text transform="matrix(1 0 0 1 213.6587 140)" class="st2 st3">95Hz</text>
	<text transform="matrix(1 0 0 1 299.7656 140)" class="st2 st3">109Hz</text>
	<text transform="matrix(1 0 0 1 389.7656 140)" class="st2 st3">128Hz</text>
	<text transform="matrix(1 0 0 1 479.7656 140)" class="st2 st3">175Hz</text>
	<text transform="matrix(1 0 0 1 29.7656 280)" class="st2 st3">240Hz</text>
	<text transform="matrix(1 0 0 1 119.7656 280)" class="st2 st3">378Hz</text>
	<text transform="matrix(1 0 0 1 209.7656 280)" class="st2 st3">338Hz</text>
	<text transform="matrix(1 0 0 1 299.7656 280)" class="st2 st3">352Hz</text>
	<text transform="matrix(1 0 0 1 389.7656 280)" class="st2 st3">426Hz</text>
	<text transform="matrix(1 0 0 1 479.7656 280)" class="st2 st3">478Hz</text>
</g>
</svg>
